X:1
T:Title
%%score 1 ( 2 3 )
L:1/8
Q:1/4=97
M:3/4
K:Eb
V:1 treble nm="Grand Piano, Soprano"
V:2 bass nm="Choir Pad, Timișoara"
V:3 bass 
V:1
 EF [EG]3 [EG] | [DF][FA] [EG]2 [B,E]2 | [EG]2 [DF]3 [DF] | [CE][DF] [EG]4 | [EG][FA] [GB]3 [GB] | %5
 [GB][GB] [Ac]2 [GB]2 | [EG]2 [DF]3 [DB] | [EB][E=A] [DB]4 | EF [EG]3 [EG] | %9
 [DB][FA] [EG]2 [B,E]2 | [_DE]2 [CE]3 [CE] | [CA][EB] [Ec]4 | [EB]2 [Ge]3 [Ge] | %13
 [Bd][Ac] [GB]2 [EG]2 | EG [EG][DF] [DA]2- | [DA][B,D] [B,E]4- | [B,E]4 z2 |] %17
V:2
 G,A, [E,B,]3 [E,B,] | [B,,B,][B,,B,] [E,B,]2 [E,G,]2 | [E,B,]2 [B,,B,]3 [B,,B,] | %3
w: By~Andrew~Linnaeus~Byers,~1911 * * *|||
 [B,,B,][B,,B,] [E,B,]4 | [E,B,]2 [E,E]3 [E,E] | [E,E][E,E] [E,E]2 [E,E]2 | %6
w: |||
 [E,B,]2 [F,B,]3 [F,B,] | [F,C][F,C] [B,,B,]4 | G,A, [E,B,]3 [E,B,] | %9
w: |||
 [B,,B,][B,,B,] [E,B,]2 [E,G,]2 | [E,G,]2 [A,,A,]3 [A,,A,] | [A,,A,][A,,A,] [A,,A,]4 | %12
w: |||
 [E,G,]2 [E,B,]3 [E,B,] | [E,C][E,D] [E,E]2 [E,B,]2 | G,B, [B,,B,][B,,B,] [B,,B,]2- | %15
w: |||
 [B,,B,][B,,B,] [E,G,]4- | [E,G,]4 z2 |] %17
w: ||
V:3
 E,2 z2 z2 | x6 | x6 | x6 | x6 | x6 | x6 | x6 | E,2 z2 z2 | x6 | x6 | x6 | x6 | x6 | E,2 z2 z2 | %15
 x6 | x6 |] %17

